svg/logo/paypal_line.svg

<?xml version="1.0" encoding="UTF-8"?>
<svg width="24px" height="24px" viewBox="0 0 24 24" version="1.1" xmlns="http://www.w3.org/2000/svg" xmlns:xlink="http://www.w3.org/1999/xlink">
    <title>paypal_line</title>
    <g id="页面-1" stroke="none" stroke-width="1" fill="none" fill-rule="evenodd">
        <g id="Brand" transform="translate(-528.000000, -0.000000)">
            <g id="paypal_line" transform="translate(528.000000, 0.000000)">
                 <path d="M24,0 L24,24 L0,24 L0,0 L24,0 Z M12.5934901,23.257841 L12.5819402,23.2595131 L12.5108777,23.2950439 L12.4918791,23.2987469 L12.4918791,23.2987469 L12.4767152,23.2950439 L12.4056548,23.2595131 C12.3958229,23.2563662 12.3870493,23.2590235 12.3821421,23.2649074 L12.3780323,23.275831 L12.360941,23.7031097 L12.3658947,23.7234994 L12.3769048,23.7357139 L12.4804777,23.8096931 L12.4953491,23.8136134 L12.4953491,23.8136134 L12.5071152,23.8096931 L12.6106902,23.7357139 L12.6232938,23.7196733 L12.6232938,23.7196733 L12.6266527,23.7031097 L12.609561,23.275831 C12.6075724,23.2657013 12.6010112,23.2592993 12.5934901,23.257841 L12.5934901,23.257841 Z M12.8583906,23.1452862 L12.8445485,23.1473072 L12.6598443,23.2396597 L12.6498822,23.2499052 L12.6498822,23.2499052 L12.6471943,23.2611114 L12.6650943,23.6906389 L12.6699349,23.7034178 L12.6699349,23.7034178 L12.678386,23.7104931 L12.8793402,23.8032389 C12.8914285,23.8068999 12.9022333,23.8029875 12.9078286,23.7952264 L12.9118235,23.7811639 L12.8776777,23.1665331 C12.8752882,23.1545897 12.8674102,23.1470016 12.8583906,23.1452862 L12.8583906,23.1452862 Z M12.1430473,23.1473072 C12.1332178,23.1423925 12.1221763,23.1452606 12.1156365,23.1525954 L12.1099173,23.1665331 L12.0757714,23.7811639 C12.0751323,23.7926639 12.0828099,23.8018602 12.0926481,23.8045676 L12.108256,23.8032389 L12.3092106,23.7104931 L12.3186497,23.7024347 L12.3186497,23.7024347 L12.3225043,23.6906389 L12.340401,23.2611114 L12.337245,23.2485176 L12.337245,23.2485176 L12.3277531,23.2396597 L12.1430473,23.1473072 Z" id="MingCute" fill-rule="nonzero"></path>
                <path d="M12.5408,2 C15.3448,2 17.5788,4.01068 18.0844,6.54701 C19.96302,7.511405 21.1207161,9.62399861 20.7308819,11.8543014 L20.685,12.0854 L20.6367,12.3025 C20.0442529,14.9665706 17.7332395,16.8843559 15.0268845,16.9948622 L14.7798,16.9999 L13.3271,16.9999 L12.8101,20.3087 C12.66645,21.2281167 11.9105481,21.919366 10.9968806,21.9933338 L10.8341,21.9999 L8.85838,21.9999 C7.78699818,21.9999 6.93631682,21.1653713 6.86305699,20.146706 L6.85794,20 L5.16841,20 C3.9898468,20 3.07835406,18.9901107 3.17500436,17.8361348 L3.19239,17.6912 L5.24776,4.53687 C5.4668032,3.1349532 6.63477184,2.08673726 8.03553406,2.00512306 L8.21179,2 L12.5408,2 Z M18.0283,8.98651 L18.0192,9.02341 C17.2849,11.9488 14.6552,14 11.6391,14 L9.79341,14 L9.01217,18.9999 L9.01463,18.9999 L8.85838,19.9999 L10.8341,19.9999 L11.3511,16.6912 C11.5032,15.7176 12.3418,14.9999 13.3271,14.9999 L14.7798,14.9999 C16.6544,14.9999 18.2775,13.6981 18.6844,11.8683 L18.7327,11.6512 C18.9554,10.65 18.652,9.67629 18.0283,8.98651 Z M12.5408,4 L8.21179,4 C7.75700846,4 7.36477746,4.30576568 7.24730199,4.73566434 L7.22378,4.84562 L5.16841,18 L7.14414,18 L7.81739,13.6912 C7.96104944,12.7717833 8.71699642,12.080534 9.63063521,12.0065662 L9.79341,12 L11.6391,12 C13.7382,12 15.5683,10.5724 16.0793,8.53651 C16.6422842,6.29366737 15.005767,4.11757771 12.7269461,4.00459989 L12.5408,4 Z" id="形状" fill="#09244B"></path>
            </g>
        </g>
    </g>
</svg>

<svg xmlns="http://www.w3.org/2000/svg" width="24" height="24"><g fill="none" fill-rule="evenodd"><path d="M24 0v24H0V0h24ZM12.593 23.258l-.011.002-.071.035-.02.004-.014-.004-.071-.035c-.01-.004-.019-.001-.024.005l-.004.01-.017.428.005.02.01.013.104.074.015.004.012-.004.104-.074.012-.016.004-.017-.017-.427c-.002-.01-.009-.017-.017-.018Zm.265-.113-.013.002-.185.093-.01.01-.003.011.018.43.005.012.008.007.201.093c.012.004.023 0 .029-.008l.004-.014-.034-.614c-.003-.012-.01-.02-.02-.022Zm-.715.002a.023.023 0 0 0-.027.006l-.006.014-.034.614c0 .012.007.02.017.024l.015-.002.201-.093.01-.008.004-.011.017-.43-.003-.012-.01-.01-.184-.092Z"/><path fill="#09244B" d="M12.54 2c2.805 0 5.039 2.01 5.544 4.547 1.879.964 3.037 3.077 2.647 5.307l-.046.231-.048.217a6 6 0 0 1-5.61 4.693L14.78 17h-1.453l-.517 3.309a2 2 0 0 1-1.813 1.684l-.163.007H8.858a2.001 2.001 0 0 1-1.995-1.853L6.858 20h-1.69a2 2 0 0 1-1.993-2.164l.017-.145L5.248 4.537a3 3 0 0 1 2.788-2.532L8.212 2h4.329Zm5.488 6.987-.009.036A6.578 6.578 0 0 1 11.64 14H9.793l-.78 5h.002l-.157 1h1.976l.517-3.309A2 2 0 0 1 13.327 15h1.453a4 4 0 0 0 3.904-3.132l.049-.217a2.987 2.987 0 0 0-.705-2.664ZM12.541 4H8.21a1 1 0 0 0-.964.736l-.023.11L5.168 18h1.976l.673-4.309a2 2 0 0 1 1.814-1.684L9.793 12h1.846c2.1 0 3.93-1.428 4.44-3.463a3.648 3.648 0 0 0-3.352-4.532L12.54 4Z"/></g></svg>
